svg/head_snowflake.svg

<svg xmlns="http://www.w3.org/2000/svg" viewBox="0 0 24 24"><path d="M13 3C9.23 3 6.19 5.95 6 9.66l-1.92 2.53c-.24.31 0 .81.42.81H6v3c0 1.11.89 2 2 2h1v3h7v-4.69c2.37-1.12 4-3.51 4-6.31 0-3.86-3.12-7-7-7m4.06 6.57-1.96.52 1.44 1.45a.9.9 0 0 1 0 1.27.9.9 0 0 1-1.27 0l-1.46-1.44-.51 1.96c-.12.49-.62.77-1.09.64a.89.89 0 0 1-.64-1.1l.53-1.97-1.97.53a.887.887 0 0 1-1.1-.64c-.13-.47.15-.97.64-1.09l1.96-.51-1.44-1.46a.9.9 0 0 1 1.27-1.27l1.45 1.44.52-1.96a.88.88 0 0 1 1.07-.64c.5.13.78.62.66 1.11l-.53 1.96 1.96-.53a.91.91 0 0 1 1.11.66.88.88 0 0 1-.64 1.07"/></svg>

<?xml version="1.0" encoding="UTF-8"?><!DOCTYPE svg PUBLIC "-//W3C//DTD SVG 1.1//EN" "http://www.w3.org/Graphics/SVG/1.1/DTD/svg11.dtd"><svg xmlns="http://www.w3.org/2000/svg" xmlns:xlink="http://www.w3.org/1999/xlink" version="1.1" id="mdi-head-snowflake" width="24" height="24" viewBox="0 0 24 24"><path d="M13 3C9.23 3 6.19 5.95 6 9.66L4.08 12.19C3.84 12.5 4.08 13 4.5 13H6V16C6 17.11 6.89 18 8 18H9V21H16V16.31C18.37 15.19 20 12.8 20 10C20 6.14 16.88 3 13 3M17.06 9.57L15.1 10.09L16.54 11.54C16.89 11.88 16.89 12.46 16.54 12.81C16.19 13.16 15.61 13.16 15.27 12.81L13.81 11.37L13.3 13.33C13.18 13.82 12.68 14.1 12.21 13.97C11.72 13.84 11.44 13.35 11.57 12.87L12.1 10.9L10.13 11.43C9.65 11.56 9.15 11.28 9.03 10.79C8.9 10.32 9.18 9.82 9.67 9.7L11.63 9.19L10.19 7.73C9.84 7.39 9.84 6.82 10.19 6.46C10.54 6.11 11.12 6.11 11.46 6.46L12.91 7.9L13.43 5.94C13.55 5.46 14.04 5.18 14.5 5.3C15 5.43 15.28 5.92 15.16 6.41L14.63 8.37L16.59 7.84C17.08 7.72 17.57 8 17.7 8.5C17.82 8.96 17.54 9.45 17.06 9.57Z" /></svg>
